X:1
T:Vals efter Ola Olsson i G
C:Ola Olsson
M:3/4
L:1/8
O:Skarup, Blekinge
R:Vals
Z:Andy Davey 2018
K:G
|:dc | cB BD GB | BA AD cB | BA AD FA | GB de dc | 
cB BD GB | BA AD cB | BA AD EF | G4 :||: EC 
D2 g3 e | d2fd A2 | AG FE D^C | D4 D^C|
D2 g3 e | d2fd A2 | AG FE D^C | D4 :| d2
d4 c2 | Bc AB G2 | DE FG AF | GA Bc d2 | 
d4 c2 | Bc AB G2 | DE FG AF | G4:|

